_includes/icons/color-web-address.svg

<svg fill="#666" height="50" viewBox="0 0 48 48" width="50" xmlns="http://www.w3.org/2000/svg"><path d="m10 18c0-7.730469 6.269531-14 14-14s14 6.269531 14 14-14 26-14 26-14-18.269531-14-26z" fill="#f50057"/><g fill="#fce4ec"><path d="m21.898438 23h-2.011719v-9.953125h2.011719z"/><path d="m25.597656 19.5v3.5h-2.011718v-9.953125h3.390625c.984375 0 1.769531.304688 2.355468.917969.585938.609375.878907 1.402344.878907 2.378906 0 .972656-.289063 1.742188-.867188 2.308594s-1.382812.847656-2.40625.847656zm0-1.675781h1.378907c.382812 0 .679687-.125.890625-.375.210937-.25.3125-.613281.3125-1.09375 0-.496094-.105469-.894531-.320313-1.1875s-.5-.441406-.859375-.445313h-1.402344z"/></g></svg>

<svg xmlns="http://www.w3.org/2000/svg" viewBox="0 0 48 48" width="50" height="50" fill="#666"><path d="M 10 18 C 10 10.269531 16.269531 4 24 4 C 31.730469 4 38 10.269531 38 18 C 38 25.730469 24 44 24 44 C 24 44 10 25.730469 10 18 Z" fill="#f50057"/><path d="M 21.898438 23 L 19.886719 23 L 19.886719 13.046875 L 21.898438 13.046875 Z" fill="#fce4ec"/><path d="M 25.597656 19.5 L 25.597656 23 L 23.585938 23 L 23.585938 13.046875 L 26.976563 13.046875 C 27.960938 13.046875 28.746094 13.351563 29.332031 13.964844 C 29.917969 14.574219 30.210938 15.367188 30.210938 16.34375 C 30.210938 17.316406 29.921875 18.085938 29.34375 18.652344 C 28.765625 19.21875 27.960938 19.5 26.9375 19.5 Z M 25.597656 17.824219 L 26.976563 17.824219 C 27.359375 17.824219 27.65625 17.699219 27.867188 17.449219 C 28.078125 17.199219 28.179688 16.835938 28.179688 16.355469 C 28.179688 15.859375 28.074219 15.460938 27.859375 15.167969 C 27.644531 14.875 27.359375 14.726563 27 14.722656 L 25.597656 14.722656 Z" fill="#fce4ec"/></svg>
